X:169
T:Edinburgh Frolick
M:2/4
L:1/8
B:Thompson's Compleat Collection of 200 Favourite Country Dances, vol. 2 (London, 1765)
Z:Transcribed and edited by Flynn Titford-Mock, 2007
Z:abc's:AK/Fiddler's Companion
K:F
A/B/ | cA FA/B/ | café | fdcA | "tr"A2 GA/B/ | cA FA/B/ | cAfa | gfed | c2c :|
|: e/f/ | ge ce/f/\ge b2 | gecB | "tr"B2 A>G | A"tr"BcG | A"tr"Bcf | cBAG | F2 F :|

